X: 40
T:Rose's Mazurka
M:3/4
R:Mazurka
L:1/8
C:Steve Mansfield, April 2006
Z:Steve Mansfield 20070808
N:A wedding present to my wife
K:Bm
B2 dB df | e4 ef | gf eg fe | fe dc BA | B2 dB df | e4 ef |
ef ed cA | B4 A2 :: Bg gB gg | Af fA ff | ed ed eg |
fe dc BA | Bg gB gg | Af fA ff | ef ed cA | B4 A2 :|

